src/icons/icons_set_01/031-etoile-pleine.svg

<svg height="50" viewBox="0 0 50 50" width="50" xmlns="http://www.w3.org/2000/svg"><path d="m40.9222411 14.3984274-13.3606804-1.9279589c.9627292.1375327.4125982 0-.2750655-1.377828l-2.0654916-4.27101669-3.0307215-6.05894226c-.1743592-.44873804-.6229494-.72948837-1.1027625-.69016429h-.2750654c-.4577171.03577871-.8688221.2936537-1.1002619.69016429l-5.7863774 12.12038515c.4125982-.9627292 0-.4125982-1.377828-.1375328l-4.68361488.6876637-6.74910654.8201953c-.6760546.2484563-1.08016553.9422676-.96272917 1.6528934.00412434.2154527.10517792.4175599.27506548.550131l9.22719642 8.9521309c.02263757.4635526-.02371254.9278964-.13753273 1.377828l-.82769703 4.6836149-1.1002619 6.7516071c-.14003334.6876637.27506547 1.5153607.96272916 1.6528935.27506548.1375327.68766369 0 .96272917-.1375328l11.29518872-5.9239101c.481197.1228275.9443626.3077575 1.3778279.550131l4.1309834 2.205525 6.0614428 3.1682541c.3272557.1889388.7171495.237067 1.0805267.1333795.3633773-.1036874.6691618-.3503231.8474323-.6835104.1400333-.2775661.277566-.6901643.1400333-.9652298l-2.0654917-12.3904494c.2873784-.3955644.6095726-.7646233.9627292-1.1027625l8.1269345-8.1269345c.2633952-.251489.4124122-.599804.4124122-.9639795 0-.3641754-.149017-.7124904-.4124122-.9639794-.1318621-.1707517-.3344123-.2720269-.5501309-.2750655z" transform="translate(3.995 4.995238)"/></svg>

<?xml version="1.0" encoding="UTF-8"?>
<svg width="50px" height="50px" viewBox="0 0 50 50" version="1.1" xmlns="http://www.w3.org/2000/svg" xmlns:xlink="http://www.w3.org/1999/xlink">
    <!-- Generator: Sketch 52.4 (67378) - http://www.bohemiancoding.com/sketch -->
    <title>031-etoile-pleine</title>
    <desc>Created with Sketch.</desc>
    <g id="031-etoile-pleine" stroke="none" stroke-width="1" fill="none" fill-rule="evenodd">
        <g id="Group" transform="translate(3.995000, 4.995238)" fill="#000000" fill-rule="nonzero">
            <g id="088-etoile-pleine">
                <g id="ICONSET-01">
                    <g id="088-etoile-pleine">
                        <path d="M40.9222411,14.3984274 L27.5615607,12.4704685 C28.5242899,12.6080012 27.9741589,12.4704685 27.2864952,11.0926405 L25.2210036,6.82162381 L22.1902821,0.762681548 C22.0159229,0.313943508 21.5673327,0.0331931805 21.0875196,0.0725172619 L20.8124542,0.0725172619 C20.3547371,0.108295971 19.9436321,0.366170958 19.7121923,0.762681548 L13.9258149,12.8830667 C14.3384131,11.9203375 13.9258149,12.4704685 12.5479869,12.7455339 L7.86437202,13.4331976 L1.11526548,14.2533929 C0.439210879,14.5018492 0.0350999461,15.1956605 0.15253631,15.9062863 C0.156660654,16.121739 0.257714226,16.3238462 0.427601786,16.4564173 L9.65479821,25.4085482 C9.67743578,25.8721008 9.63108567,26.3364446 9.51726548,26.7863762 L8.68956845,31.4699911 L7.58930655,38.2215982 C7.44927321,38.9092619 7.86437202,39.7369589 8.55203571,39.8744917 C8.82710119,40.0120244 9.2396994,39.8744917 9.51476488,39.7369589 L20.8099536,33.8130488 C21.2911506,33.9358763 21.7543162,34.1208063 22.1877815,34.3631798 L26.3187649,36.5687048 L32.3802077,39.7369589 C32.7074634,39.9258977 33.0973572,39.9740259 33.4607344,39.8703384 C33.8241117,39.766651 34.1298962,39.5200153 34.3081667,39.186828 C34.4482,38.9092619 34.5857327,38.4966637 34.4482,38.2215982 L32.3827083,25.8311488 C32.6700867,25.4355844 32.9922809,25.0665255 33.3454375,24.7283863 L41.472372,16.6014518 C41.7357672,16.3499628 41.8847842,16.0016478 41.8847842,15.6374723 C41.8847842,15.2732969 41.7357672,14.9249819 41.472372,14.6734929 C41.3405099,14.5027412 41.1379597,14.401466 40.9222411,14.3984274 Z" id="Shape"></path>
                    </g>
                </g>
            </g>
        </g>
    </g>
</svg>
